!!!!SEGMENT: pl-cz--ii-16--008_szlagorski-walenty--talnce-mazur-2.krn
!!!cenid: 18xx:1072
!!!COM: Szlagórski, Walenty
!!!COM-rismid: pe30111815
!!!CDT: 1801-1863/07/16
!!!CNT: Polish
!!!GTL: Tańce
!!!OTL: Mazur 2
!!!PDT:
!!!AGN: Secular; Mazurka
!!!SMS-siglum: PL-CZ
!!!SMS-shelfmark: II-16
!!!SMS-shelfwork: 008 G
!!!SMS-variant:
!!!SMS-altvar:
!!!NIFC-rismid: 300001301
!!!URL-scan: http://repozytorium.nifc.pl/skany/pl-cz-nut--ii-16
!!!ONB-nifc: UWAGA: zbiór zawiera Walce nr 1-5, Galop, Mazury nr 1-4
!!!key:
**kern	**dynam	**kern	**kern	**dynam	**kern	**kern	**dynam	**kern	**dynam	**kern	**kern	**kern
*part9	*part9	*part8	*part7	*part7	*part6	*part5	*part5	*part4	*part4	*part3	*part2	*part1
*staff9	*	*staff8	*staff7	*	*staff6	*staff5	*	*staff4	*	*staff3	*staff2	*staff1
*Iempty	*	*Ivioln	*Ivioln	*	*Iempty	*Icor	*	*Icor	*	*Iclars	*Iclars	*Iflt
*I"Baſso	*	*I"Violino 2.do	*I"Violino 1mo	*	*I"Clarino. in D.	*I"Corno 2do in D.	*	*I"Corno 1mo in D.	*	*I"Clarinetto 2do in A.	*I"Clarinetto 1mo in A.	*I"Flauto
*I'b	*	*I'vl 2	*I'vl 1	*	*I'clno	*I'cor 2	*	*I'cor 1	*	*I'cl 2	*I'cl 1	*I'fl
*clefF4	*	*clefG2	*clefG2	*	*clefG2	*clefG2	*	*clefG2	*	*clefG2	*clefG2	*clefG2
*	*	*	*	*	*ITrd-1c-2	*ITrd2c3	*	*ITrd2c3	*	*ITrd2c3	*	*
*ok[a#c#b#]	*	*	*	*	*	*	*	*	*	*	*	*
*k[f#c#g#]	*	*k[f#c#g#]	*k[f#c#g#]	*	*k[f#c#]	*k[f#c#g#]	*	*k[f#c#g#]	*	*k[f#c#g#]	*k[f#c#g#]	*k[f#c#g#]
*A:	*	*A:	*A:	*	*	*	*	*	*	*	*A:	*A:
*M3/8	*	*M3/8	*M3/8	*	*M3/8	*M3/8	*	*M3/8	*	*M3/8	*M3/8	*M3/8
*>[A,A,B,B,C,C,D,A,A,B,B,C,C]	*	*>[A,A,B,B,C,C,D,A,A,B,B,C,C]	*>[A,A,B,B,C,C,D,A,A,B,B,C,C]	*	*>[A,A,B,B,C,C,D,A,A,B,B,C,C]	*>[A,A,B,B,C,C,D,A,A,B,B,C,C]	*	*>[A,A,B,B,C,C,D,A,A,B,B,C,C]	*	*>[A,A,B,B,C,C,D,A,A,B,B,C,C]	*>[A,A,B,B,C,C,D,A,A,B,B,C,C]	*>[A,A,B,B,C,C,D,A,A,B,B,C,C]
=1	=1	=1	=1	=1	=1	=1	=1	=1	=1	=1	=1	=1
*>A	*	*>A	*>A	*	*>A	*>A	*	*>A	*	*>A	*>A	*>A
!LO:TX:t=P:problem=błędnie wpisane znaki	!	!	!	!	!LO:TX:a:t=Mazur 2 proszę sobie według Cornin odegrać	!LO:TX:a:t=A.	!	!LO:TX:a:t=in A.	!	!LO:TX:a:t=Mazur 2 Tacet	!LO:TX:t=P:problem=zapis in C	!
4A\	.	8r	16.a\LL	f	4.ryy	8r	.	8r	.	4.ryy	8r	8r
.	.	.	32cc#\JJk	.	.	.	.	.	.	.	.	.
.	.	8c#/L 8e	8.ee\L	.	.	8c#/L	.	8a\L	.	.	8cc#\L	8aa\L
8r	.	8c#/J 8e	.	.	.	8c#/J	.	8a\J	.	.	8cc#\J	8aa\J
.	.	.	16dd#X\Jk	.	.	.	.	.	.	.	.	.
=2	=2	=2	=2	=2	=2	=2	=2	=2	=2	=2	=2	=2
*	*	*rep	*	*	*	*rep	*	*rep	*	*	*rep	*rep
4A\	.	8r	(16ff#\LL	.	4.ryy	8r	.	8r	.	4.ryy	8r	8r
.	.	.	16ee\	.	.	.	.	.	.	.	.	.
.	.	8c#/L 8e	16dd#X\	.	.	8c#/L	.	8a\L	.	.	8cc#\L	8aa\L
.	.	.	16ee\JJ)	.	.	.	.	.	.	.	.	.
8r	.	8c#/J 8e	16cc#\LL	.	.	8c#/J	.	8a\J	.	.	8cc#\J	8aa\J
.	.	.	16ee\JJ	.	.	.	.	.	.	.	.	.
*	*	*Xrep	*	*	*	*Xrep	*	*Xrep	*	*	*Xrep	*Xrep
=3	=3	=3	=3	=3	=3	=3	=3	=3	=3	=3	=3	=3
*	*	*rep	*	*	*	*rep	*	*rep	*	*	*rep	*rep
4A\	.	8r	16.aa\LL	.	4.ryy	8r	.	8r	.	4.ryy	8r	8r
.	.	.	32ccc#\JJk	.	.	.	.	.	.	.	.	.
.	.	8c#/L 8e	8..eee\L	.	.	8c#/L	.	8a\L	.	.	8cc#\L	8aa\L
8r	.	8c#/J 8e	.	.	.	8c#/J	.	8a\J	.	.	8cc#\J	8aa\J
.	.	.	32aa\Jkk	.	.	.	.	.	.	.	.	.
*	*	*Xrep	*	*	*	*Xrep	*	*Xrep	*	*	*Xrep	*Xrep
!	!	!	!LO:LB:g=original	!	!	!	!	!	!	!	!	!
=4	=4	=4	=4	=4	=4	=4	=4	=4	=4	=4	=4	=4
*	*	*rep	*	*	*	*	*	*	*	*	*	*
!	!	!	!LO:TX:t=P:problem=zapis łuku niejednoznaczny	!	!	!	!	!	!	!	!	!
*	*	*	*	*	*	*rep	*	*rep	*	*	*rep	*rep
4A\	.	8r	(16ccc#\LL	.	4.ryy	8r	.	8r	.	4.ryy	8r	8r
.	.	.	16ee\	.	.	.	.	.	.	.	.	.
.	.	8c#/L 8e	16aa\)	.	.	8c#/L	.	8a\L	.	.	8cc#\L	8aa\L
!	!	!	!LO:TX:t=P:problem=zapis łuku niejednoznaczny	!	!	!	!	!	!	!	!	!
.	.	.	(16cc#\	.	.	.	.	.	.	.	.	.
8r	.	8c#/J 8e	16ee\	.	.	8c#/J	.	8a\J	.	.	8cc#\J	8aa\J
.	.	.	16a\JJ)	.	.	.	.	.	.	.	.	.
*	*	*Xrep	*	*	*	*Xrep	*	*Xrep	*	*	*Xrep	*Xrep
=5	=5	=5	=5	=5	=5	=5	=5	=5	=5	=5	=5	=5
*tremolo	*	*	*	*	*	*	*	*	*	*	*	*
*	*	*tremolo	*	*	*	*	*	*	*	*	*	*
!	!LO:DY:rj:t=for	!	!	!	!	!	!LO:DY:t=for	!	!	!	!	!
8E\L	f	8B/ 8eL	16.b\LL	.	4.ryy	4e\	f	4b^\	f	4.ryy	8r	16b\LL
.	.	.	.	.	.	.	.	.	.	.	.	16cc#\JJ
.	.	.	32cc#\JJk	.	.	.	.	.	.	.	.	.
8E\	.	8B/ 8e	8dd\L	.	.	.	.	.	.	.	8dd\L	8dd\L
8E\J	.	8B/ 8eJ	8dd\J	.	.	8e\	.	8b\	.	.	8dd\J	8dd\J
=6	=6	=6	=6	=6	=6	=6	=6	=6	=6	=6	=6	=6
*	*	*rep	*	*	*	*	*	*	*	*	*	*
8E\L	.	8B/ 8eL	(16ddd\LL	.	4.ryy	8r	.	8r	.	4.ryy	8r	16.ddd\LL
.	.	.	16ccc#\	.	.	.	.	.	.	.	.	.
.	.	.	.	.	.	.	.	.	.	.	.	32ccc#\K
8E\	.	8B/ 8e	16bb\	.	.	8e\L	.	8b\L	.	.	8dd\L	16.bb\
.	.	.	16aa\	.	.	.	.	.	.	.	.	.
.	.	.	.	.	.	.	.	.	.	.	.	32aa\K
8E\J	.	8B/ 8eJ	16.gg#\	.	.	8e\J	.	8b\J	.	.	8dd\J	16.gg#\
.	.	.	32ff#\JJk)	.	.	.	.	.	.	.	.	32ff#\JJk
*	*	*Xrep	*	*	*	*	*	*	*	*	*	*
!	!	!	!	!	!	!	!	!	!	!	!	!LO:LB:g=original
=7	=7	=7	=7	=7	=7	=7	=7	=7	=7	=7	=7	=7
*	*	*rep	*	*	*	*rep	*	*rep	*	*	*	*
8E\L	.	8B/ 8eL	16.ee\LL	.	4.ryy	8r	.	8r	.	4.ryy	8r	16.eee\LL
.	.	.	32dd#X\K	.	.	.	.	.	.	.	.	32ddd#X\K
8E\	.	8B/ 8e	16.ff#\	.	.	8e\L	.	8b\L	.	.	8ee\L	16.fff#\
.	.	.	32ee\K	.	.	.	.	.	.	.	.	32eee\K
8E\J	.	8B/ 8eJ	16.ddn\	.	.	8e\J	.	8b\J	.	.	8ee\J	16.dddn\
.	.	.	32b\JJk	.	.	.	.	.	.	.	.	32bb\JJk
*Xtremolo	*	*Xrep	*	*	*	*Xrep	*	*Xrep	*	*	*	*
*	*	*Xtremolo	*	*	*	*	*	*	*	*	*	*
!	!	!LO:LB:g=original	!LO:LB:g=original	!	!	!	!	!	!	!	!LO:LB:g=original	!
=8	=8	=8	=8	=8	=8	=8	=8	=8	=8	=8	=8	=8
8A\	.	8c#/ 8e	8a\	.	4.ryy	8c#/	.	8a\	.	4.ryy	8cc#\	8aa\
4A\	.	4c#/ 4e	4aa\	.	.	4c#/	.	4a\	.	.	4cc#\	4aaa\
!LO:LB:g=original	!	!	!	!	!	!	!	!	!	!	!	!
=9:|!|:	=9:|!|:	=9:|!|:	=9:|!|:	=9:|!|:	=9:|!|:	=9:|!|:	=9:|!|:	=9:|!|:	=9:|!|:	=9:|!|:	=9:|!|:	=9:|!|:
*>B	*	*>B	*>B	*	*>B	*>B	*	*>B	*	*>B	*>B	*>B
*tremolo	*	*tremolo	*	*	*	*	*	*	*	*	*	*
!LO:TX:t=P:problem=brak znaku repetycji na początku taktu	!	!	!	!	!	!	!	!	!	!	!	!LO:TX:a:t=4
!	!	!	!	!	!	!	!	!	!	!	!LO:TX:a:t=4	!LO:N:vis=00
!	!	!	!	!	!	!	!	!	!	!	!LO:N:vis=00	!
8E\L	.	8B/ 8eL	8b\L 8gg#	.	4.ryy	8r	.	8r	.	4.ryy	1.r	1.r
8E\	.	8B/ 8e	8b\ 8gg#	.	.	8e/L	.	8b\L	.	.	.	.
8E\J	.	8B/ 8eJ	8b\J 8gg#	.	.	8e/J	.	8b\J	.	.	.	.
*Xtremolo	*	*Xtremolo	*	*	*	*	*	*	*	*	*	*
=10	=10	=10	=10	=10	=10	=10	=10	=10	=10	=10	=10	=10
4A\	.	8r	16aa\LL	.	4.ryy	8r	.	8r	.	4.ryy	.	.
.	.	.	16cc#\	.	.	.	.	.	.	.	.	.
.	.	8c#/L 8e	16ff#\	.	.	8c#/L	.	8a\L	.	.	.	.
.	.	.	16ee\	.	.	.	.	.	.	.	.	.
8r	.	8c#/J 8e	16dd\	.	.	8c#/J	.	8a\J	.	.	.	.
.	.	.	16cc#\JJ	.	.	.	.	.	.	.	.	.
!	!	!	!	!	!	!LO:LB:g=original	!	!LO:LB:g=original	!	!	!	!
=11	=11	=11	=11	=11	=11	=11	=11	=11	=11	=11	=11	=11
!	!	!	!LO:TUP:a:problem=klamra łukowa	!	!	!	!	!	!	!	!	!
4E\	.	8r	24b\LL	.	4.ryy	8r	.	8r	.	4.ryy	.	.
.	.	.	24cc#\	.	.	.	.	.	.	.	.	.
.	.	.	24dd\JJ	.	.	.	.	.	.	.	.	.
.	.	8d/L 8e	8e/L	.	.	8e/L	.	8b\L	.	.	.	.
8r	.	8d/J 8e	(16f#/L	.	.	8e/J	.	8b\J	.	.	.	.
.	.	.	16g#/JJ)	.	.	.	.	.	.	.	.	.
=12	=12	=12	=12	=12	=12	=12	=12	=12	=12	=12	=12	=12
4A\	.	8r	16a\LL	.	4.ryy	8r	.	8r	.	4.ryy	.	.
.	.	.	16b\	.	.	.	.	.	.	.	.	.
.	.	8c#/L 8e	16cc#\	.	.	8c#/L	.	8a\L	.	.	.	.
.	.	.	16dd\	.	.	.	.	.	.	.	.	.
8r	.	8c#/J 8e	16.ff#\	.	.	8c#/J	.	8a\J	.	.	.	.
.	.	.	32ee\JJk	.	.	.	.	.	.	.	.	.
!	!	!	!LO:LB:g=original	!	!	!	!	!	!	!	!	!
=13	=13	=13	=13	=13	=13	=13	=13	=13	=13	=13	=13	=13
!LO:TX:t=P:problem=niepotrzebnie powtórzony takt	!	!LO:TX:t=P:problem=niepotrzebnie powtórzony takt w B	!LO:TX:t=P:problem=niepotrzebnie powtórzony takt w B	!	!	!LO:TX:t=P:problem=niepotrzebnie powtórzony takt w B	!	!LO:TX:t=P:problem=niepotrzebnie powtórzony takt w B	!	!	!LO:TX:t=P:problem=niepotrzebnie powtórzony takt w B	!LO:TX:t=P:problem=niepotrzebnie powtórzony takt w B
4A\	.	4.ryy	4.ryy	.	4.ryy	4.ryy	.	4.ryy	.	4.ryy	4.ryy	4.ryy
8r	.	.	.	.	.	.	.	.	.	.	.	.
=14	=14	=14	=14	=14	=14	=14	=14	=14	=14	=14	=14	=14
*tremolo	*	*tremolo	*	*	*	*	*	*	*	*	*	*
8E\L	.	8B/ 8eL	8e\L	.	4.ryy	4e/	.	4b\	.	4.ryy	8r	8gg#X\L
8E\	.	8B/ 8e	(16aa\L	.	.	.	.	.	.	.	8ee\L	(16aa\L
.	.	.	16gg#\	.	.	.	.	.	.	.	.	16gg#\
8E\J	.	8B/ 8eJ	16ff#\	.	.	8e/	.	8b\	.	.	8ee\J	16ff#\
.	.	.	16gg#\JJ)	.	.	.	.	.	.	.	.	16gg#\JJ)
=15	=15	=15	=15	=15	=15	=15	=15	=15	=15	=15	=15	=15
8A\L	.	8c#/ 8eL	16.aa\LL	.	4.ryy	8r	.	8r	.	4.ryy	8r	16.aa\LL
.	.	.	32cc#\K	.	.	.	.	.	.	.	.	32ccc#\K
8A\	.	8c#/ 8e	16.ff#\	.	.	8c#/L	.	8a\L	.	.	8aa\L	16.fff#\
.	.	.	32ee\K	.	.	.	.	.	.	.	.	32eee\K
8A\J	.	8c#/ 8eJ	16.dd\	.	.	8c#/J	.	8a\J	.	.	8aa\J	16.ddd\
.	.	.	32cc#\JJk	.	.	.	.	.	.	.	.	32ccc#\JJk
!	!	!	!	!	!	!	!	!	!	!	!	!LO:LB:g=original
=16	=16	=16	=16	=16	=16	=16	=16	=16	=16	=16	=16	=16
!	!	!	!LO:TUP:a:problem=klamra łukowa	!	!	!	!	!	!	!	!	!LO:TUP:a:problem=klamra łukowa
8E\L	.	8d/ 8eL	24b\LL	.	4.ryy	8r	.	8r	.	4.ryy	8r	24bb\LL
.	.	.	24cc#\	.	.	.	.	.	.	.	.	24ccc#\
.	.	.	24dd\JJ	.	.	.	.	.	.	.	.	24bb\JJ
8E\	.	8d/ 8e	8e/L	.	.	8e/L	.	8b\L	.	.	8ee\L	(8ee\L
8E\J	.	8d/ 8eJ	(16f#/L	.	.	8e/J	.	8b\J	.	.	8ee\J	16ff#\L
.	.	.	16g#/JJ)	.	.	.	.	.	.	.	.	16gg#\JJ)
*Xtremolo	*	*Xtremolo	*	*	*	*	*	*	*	*	*	*
=17	=17	=17	=17	=17	=17	=17	=17	=17	=17	=17	=17	=17
8A\	.	8c#/ 8e	8a\	.	4.ryy	8c#/	.	8a\	.	4.ryy	8aa\	8aa\
4A\	.	4c#/ 4e	4aa\	.	.	4c#/	.	4a\	.	.	4aa\	4aaa\
!	!	!LO:LB:g=original	!	!	!	!	!	!	!	!	!	!
=18:|!|:	=18:|!|:	=18:|!|:	=18:|!|:	=18:|!|:	=18:|!|:	=18:|!|:	=18:|!|:	=18:|!|:	=18:|!|:	=18:|!|:	=18:|!|:	=18:|!|:
*>C	*	*>C	*>C	*	*>C	*>C	*	*>C	*	*>C	*>C	*>C
*ok[f#c#bn]	*	*ok[f#c#gn]	*ok[f#c#gn]	*	*	*	*	*	*	*	*ok[f#c#gn]	*ok[f#c#gn]
*k[f#c#]	*	*k[f#c#]	*k[f#c#]	*	*	*	*	*	*	*	*k[f#c#]	*k[f#c#]
*D:	*	*D:	*D:	*	*	*	*	*	*	*	*D:	*D:
!	!	!	!	!	!	!LO:TX:a:t=8	!	!LO:TX:a:t=8	!	!	!	!
!	!	!	!	!	!	!LO:N:vis=00	!	!LO:N:vis=00	!	!	!	!
4D\ 4d	.	8r	8r	.	4.ryy	1.r	.	1.r	.	4.ryy	16.ff#\LL	16.ff#\LL
!	!	!	!	!	!	!	!	!	!	!	!LO:TX:b:t=g	!
.	.	.	.	.	.	.	.	.	.	.	32gg\JJk	32gg\JJk
.	.	8A/L 8f#	8f#/L 8a	.	.	.	.	.	.	.	8.aa\L	8.aa\L
8r	.	8A/J 8f#	8f#/J 8a	.	.	.	.	.	.	.	.	.
.	.	.	.	.	.	.	.	.	.	.	16cc#\Jk	16cc#\Jk
!LO:LB:g=original	!	!	!LO:LB:g=original	!	!	!	!	!	!	!	!LO:LB:g=original	!
=19	=19	=19	=19	=19	=19	=19	=19	=19	=19	=19	=19	=19
*	*	*rep	*	*	*	*	*	*	*	*	*	*
!	!	!	!	!	!	!	!	!	!	!	!LO:TUP:a:problem=klamra łukowa	!LO:TUP:a:problem=klamra łukowa
4D\ 4d	.	8r	8r	.	4.ryy	.	.	.	.	4.ryy	24dd\LL	24dd\LL
.	.	.	.	.	.	.	.	.	.	.	24ee\	24ee\
.	.	.	.	.	.	.	.	.	.	.	24ff#\JJ	24ff#\JJ
.	.	8A/L 8f#	8f#/L 8a	.	.	.	.	.	.	.	8a\L	(8a\L
8r	.	8A/J 8f#	8f#/J 8a	.	.	.	.	.	.	.	(16cc#\L	16cc#\L
.	.	.	.	.	.	.	.	.	.	.	16ee\JJ)	16ee\JJ)
*	*	*Xrep	*	*	*	*	*	*	*	*	*	*
=20	=20	=20	=20	=20	=20	=20	=20	=20	=20	=20	=20	=20
4A\	.	8r	8r	.	4.ryy	.	.	.	.	4.ryy	16gg\LL	16gg\LL
.	.	.	.	.	.	.	.	.	.	.	16ff#\	16ff#\
.	.	8A/L 8g	8g/L 8b	.	.	.	.	.	.	.	16gg\	16gg\
.	.	.	.	.	.	.	.	.	.	.	16ee\	16ee\
8r	.	8A/J 8g	8g/J 8b	.	.	.	.	.	.	.	16bb\	16bb\
.	.	.	.	.	.	.	.	.	.	.	16aa\JJ	16aa\JJ
!	!	!	!	!	!	!	!	!	!	!	!	!LO:LB:g=original
=21	=21	=21	=21	=21	=21	=21	=21	=21	=21	=21	=21	=21
4D\ 4d	.	8r	8r	.	4.ryy	.	.	.	.	4.ryy	16.ff#\LL	16ff#\LL
.	.	.	.	.	.	.	.	.	.	.	.	16aa\JJ
.	.	.	.	.	.	.	.	.	.	.	32aa\JJk	.
.	.	8A/L 8f#	8f#/L 8a	.	.	.	.	.	.	.	8dd\L	8dd\L
8r	.	8A/J 8f#	8f#/J 8a	.	.	.	.	.	.	.	8ddd\J	8ddd\J
=22	=22	=22	=22	=22	=22	=22	=22	=22	=22	=22	=22	=22
*tremolo	*	*tremolo	*tremolo	*	*	*	*	*	*	*	*	*
!	!	!	!	!	!	!LO:N:vis=00	!	!LO:N:vis=00	!	!	!LO:N:vis=8.	!
8D\ 8dL	.	8A/ 8f#L	8f#/ 8aL	.	4.ryy	1.r	.	1.r	.	4.ryy	16.ff#\LL	16ff#\LL
.	.	.	.	.	.	.	.	.	.	.	.	16aa\JJ
!	!	!	!	!	!	!	!	!	!	!	!LO:N:vis=16	!
.	.	.	.	.	.	.	.	.	.	.	32aa\JJk	.
8D\ 8d	.	8A/ 8f#	8f#/ 8a	.	.	.	.	.	.	.	8.ddd\L	8.ddd\L
8D\ 8dJ	.	8A/ 8f#J	8f#/ 8aJ	.	.	.	.	.	.	.	.	.
.	.	.	.	.	.	.	.	.	.	.	16ccc#\Jk	16ccc#\Jk
=23	=23	=23	=23	=23	=23	=23	=23	=23	=23	=23	=23	=23
!	!	!	!	!	!	!	!	!	!	!	!LO:TUP:a:problem=klamra łukowa	!LO:TUP:a:problem=klamra łukowa
8G\L	.	8A/ 8gL	8g/ 8bL	.	4.ryy	.	.	.	.	4.ryy	24bb\LL	24bb\LL
.	.	.	.	.	.	.	.	.	.	.	24ccc#\	24ccc#\
.	.	.	.	.	.	.	.	.	.	.	24bb\JJ	24bb\JJ
8G\	.	8A/ 8g	8g/ 8b	.	.	.	.	.	.	.	8gg\L	(8gg\L
8G\J	.	8A/ 8gJ	8g/ 8bJ	.	.	.	.	.	.	.	(16ee\L	16ee\L
!	!	!	!	!	!	!	!	!	!	!	!LO:SIC:v:s=16dd\JJ)	!
.	.	.	.	.	.	.	.	.	.	.	16cc#\JJ)	16dd\JJ)
!	!	!	!	!	!	!	!	!	!	!	!LO:LB:g=original	!
=24	=24	=24	=24	=24	=24	=24	=24	=24	=24	=24	=24	=24
*	*	*rep	*	*	*	*	*	*	*	*	*	*
8A\L	.	8A/ 8gL	8a/L	.	4.ryy	.	.	.	.	4.ryy	16.cc#\LL	16.cc#\LL
.	.	.	.	.	.	.	.	.	.	.	32a\K	32a\K
8A\	.	8A/ 8g	8a/	.	.	.	.	.	.	.	16.cc#\	16.cc#\
.	.	.	.	.	.	.	.	.	.	.	32ee\K	32ee\K
8A\J	.	8A/ 8gJ	8a/J	.	.	.	.	.	.	.	16.aa\	16.aa\
.	.	.	.	.	.	.	.	.	.	.	32cc#\JJk	32cc#\JJk
*Xtremolo	*	*Xtremolo	*Xtremolo	*	*	*	*	*	*	*	*	*
*	*	*Xrep	*	*	*	*	*	*	*	*	*	*
=25	=25	=25	=25	=25	=25	=25	=25	=25	=25	=25	=25	=25
!	!	!	!	!	!	!LO:TX:a:t=D.Capo Mazur	!	!LO:TX:a:t=Da Capo	!	!	!LO:TX:t=P:problem=zapis łuku niejednoznaczny	!LO:TX:t=P:problem=zapis łuku niejednoznaczny
8d\	.	8A/ 8f#	8f#/ 8a	.	4.ryy	.	.	.	.	4.ryy	(16ee\LL	(16ee\LL
.	.	.	.	.	.	.	.	.	.	.	16dd\JJ	16dd\JJ
!	!	!	!LO:TX:b:t=Fine	!	!	!	!	!	!	!	!LO:TX:t=P:problem=brak znaku repetycji	!LO:TX:t=P:problem=brak znaku repetycji
4D\	.	4A/ 4f#	4f#/ 4a	.	.	.	.	.	.	.	4dd\)	4dd'\)
=26:|!	=26:|!	=26:|!	=26:|!	=26:|!	=26:|!	=26:|!	=26:|!	=26:|!	=26:|!	=26:|!	=26:|!	=26:|!
*>D	*	*>D	*>D	*	*>D	*>D	*	*>D	*	*>D	*>D	*>D
!	!	!	!LO:TX:a:t=Ta <.>us Część za Flau trawers lub Klarinet na Skrzypcach odegraną bydz może_to ust za 3cią Część	!	!	!	!	!	!	!	!	!
4.ryy	.	4.ryy	16.ff#\LL	.	4.ryy	4.ryy	.	4.ryy	.	4.ryy	4.ryy	4.ryy
.	.	.	32gg\JJk	.	.	.	.	.	.	.	.	.
.	.	.	8aa\L	.	.	.	.	.	.	.	.	.
.	.	.	8cc#\J	.	.	.	.	.	.	.	.	.
!	!	!	!LO:LB:g=original	!	!	!	!	!	!	!	!	!
=27	=27	=27	=27	=27	=27	=27	=27	=27	=27	=27	=27	=27
!	!	!	!LO:TUP:a:problem=klamra łukowa	!	!	!	!	!	!	!	!	!
4.ryy	.	4.ryy	24dd\LL	.	4.ryy	4.ryy	.	4.ryy	.	4.ryy	4.ryy	4.ryy
.	.	.	24ee\	.	.	.	.	.	.	.	.	.
.	.	.	24ff#\JJ	.	.	.	.	.	.	.	.	.
.	.	.	8a\L	.	.	.	.	.	.	.	.	.
.	.	.	16cc#\L	.	.	.	.	.	.	.	.	.
.	.	.	16ee\JJ	.	.	.	.	.	.	.	.	.
=28	=28	=28	=28	=28	=28	=28	=28	=28	=28	=28	=28	=28
4.ryy	.	4.ryy	16gg\LL	.	4.ryy	4.ryy	.	4.ryy	.	4.ryy	4.ryy	4.ryy
.	.	.	16ff#\	.	.	.	.	.	.	.	.	.
.	.	.	16gg\	.	.	.	.	.	.	.	.	.
.	.	.	16ee\	.	.	.	.	.	.	.	.	.
.	.	.	16bb\	.	.	.	.	.	.	.	.	.
.	.	.	16aa\JJ	.	.	.	.	.	.	.	.	.
=29	=29	=29	=29	=29	=29	=29	=29	=29	=29	=29	=29	=29
4.ryy	.	4.ryy	16.ff#\LL	.	4.ryy	4.ryy	.	4.ryy	.	4.ryy	4.ryy	4.ryy
.	.	.	32aa\JJk	.	.	.	.	.	.	.	.	.
.	.	.	8dd\L	.	.	.	.	.	.	.	.	.
.	.	.	8ddd\J	.	.	.	.	.	.	.	.	.
=30	=30	=30	=30	=30	=30	=30	=30	=30	=30	=30	=30	=30
!	!	!	!LO:N:vis=16	!	!	!	!	!	!	!	!	!
4.ryy	.	4.ryy	16.ff#\LL	.	4.ryy	4.ryy	.	4.ryy	.	4.ryy	4.ryy	4.ryy
.	.	.	32aa\JJk	.	.	.	.	.	.	.	.	.
.	.	.	8.ddd\L	.	.	.	.	.	.	.	.	.
.	.	.	16ccc#\Jk	.	.	.	.	.	.	.	.	.
=31	=31	=31	=31	=31	=31	=31	=31	=31	=31	=31	=31	=31
!	!	!	!LO:TUP:a:problem=klamra łukowa	!	!	!	!	!	!	!	!	!
4.ryy	.	4.ryy	24bb\LL	.	4.ryy	4.ryy	.	4.ryy	.	4.ryy	4.ryy	4.ryy
.	.	.	24ccc#\	.	.	.	.	.	.	.	.	.
.	.	.	24ddd\JJ	.	.	.	.	.	.	.	.	.
.	.	.	8gg\L	.	.	.	.	.	.	.	.	.
.	.	.	16ee\L	.	.	.	.	.	.	.	.	.
.	.	.	16dd\JJ	.	.	.	.	.	.	.	.	.
=32	=32	=32	=32	=32	=32	=32	=32	=32	=32	=32	=32	=32
4.ryy	.	4.ryy	16.cc#\LL	.	4.ryy	4.ryy	.	4.ryy	.	4.ryy	4.ryy	4.ryy
.	.	.	32a\K	.	.	.	.	.	.	.	.	.
.	.	.	16.cc#\	.	.	.	.	.	.	.	.	.
.	.	.	32ee\K	.	.	.	.	.	.	.	.	.
.	.	.	16.aa\	.	.	.	.	.	.	.	.	.
.	.	.	32cc#\JJk	.	.	.	.	.	.	.	.	.
=33	=33	=33	=33	=33	=33	=33	=33	=33	=33	=33	=33	=33
4.ryy	.	4.ryy	16ee\LL	.	4.ryy	4.ryy	.	4.ryy	.	4.ryy	4.ryy	4.ryy
.	.	.	16dd\JJ	.	.	.	.	.	.	.	.	.
.	.	.	4dd\	.	.	.	.	.	.	.	.	.
==	==	==	==	==	==	==	==	==	==	==	==	==
*-	*-	*-	*-	*-	*-	*-	*-	*-	*-	*-	*-	*-
!!!system-decoration: [(s1,s2,s3)][(s4,s5,s6)][(s7,s8,s9)]
!!!RDF**kern: < = below
!!!RDF**kern: > = above
!!!AIN: 2 clars 2 cor 2 empty 1 flt 2 violn
!!!ENC: Katarzyna Serwa
!!!END: 2020-10-03
!!!ENC: Marta Chmielewska
!!!END: 2021-11-02
